X:8
T:Merry Polley. Ca1758.032
M:2/4
L:1/8
Q:1/2=60
B:Cahusac,T. 24 Country Dances for the Year 1758
Z:vmp.Mike Hicken 2015 www.village-music-project.org.uk
N:* There is no repeat sign shown here in the original.
K:Bb
(d//c//B3/) (d//c//B3/) |bf Tf2|ecTBA|(3ABc B2|(d//c//B3/) (d//c//B3/) |bg Tg2|afc=e|(3efg f2 :|
|: (d//c//B3/) (d//c//B3/)|_af Tf2|e//d//c3/ (ab)|TB2A2|GEec|dBbf|(g//a//b3/) dc|B2 BTB "*":|
W:
W: The 1st. Cu. lead thro' the 2d. Cu.
W: and cast up .|  Back to Back & cast
W: off :|  hands round with the 2d.
W: Cu. .|  and Right and Left :|

